!!!COM: Richard Wagner
!!!CNT: Deutsch
!!!TXO: Deutsch
!!!OTL: Im Treibhaus
!!!LYR: Wesendonk
!!!OPR: 5 Gedichte für eine Frauenstimme (Wesendonk Lieder)
!!!OPS: WWV 91 - no opus info available
!!!ONM: No. 3
!!!ENC: Ben Fuhrman
!!!YOR: IMSLP, no information given on the edition
!!!YOR: http://imslp.org/wiki/5_Gedichte_f%C3%BCr_eine_Frauenstimme,_WWV_91_%28Wagner,_Richard%29
!!!ODT: 1858
!!NB: Only vocal melody encoded.
!!NB: First instance of melodic material only encoded.
!!created: 2/10/10 2:38PM
!!proofed and posted: 2/10/10 2:45PM
**kern	**silbe
*clef G2	*
*k[b-]	*
*M6/8	*
*MM[Langsam und schwer]	*
=5	=5
{4a	{Hoch
8a	ge-
4b-	-wo2lb-
8b-	-te
=6	=6
4dd	Bla2t-
8a	-ter
(8a	-kro-
8g)	|
8f	-nen,
=7	=7
*M9/8	*
8r	.
8a	Bal-
8g	-da-
(8f	-chi-
8b-)	|
8a	-ne
8r	.
8a	von
8dd	Sma-
=8	=8
*M6/8	*
4ee}	-ragd,}
8r	.
{(4a	{Kin-
8a	-der
=9	=9
4b-	ihr
8b-	aus
4b-	fer-
8b-	-nen
=10	=10
8b-	Zo-
8bn	|
8cc	-nen,
4cc#	sa-
8g#)	-get
=11	=11
4g#	mir
8g#	wa-
4g#	-rum
8a	ihr
=12	=12
*M9/8	*
(4.b-	klagt?
4a)}	|}
8r	.
4r	.
8r	.
=13	=13
*M6/8	*
4r	.
8r	.
{4e	{Schwei-
8f	-gend
=14	=14
4g	nei-
8a	-get
4b	ihr
8b	die
=15	=15
*M9/8	*
4dd	Zwei-
8a	-ge,
4b-	ma-
8b-	-let
8.cc#	Zei-
16dd	-chen
16cc#	in
16dd	die
=16	=16
*M6/8	*
4ff}	Luft,}
8r	.
8r	.
{(8dd	{und
8dd	der
=17	=17
4ee-	Lei-
8ee-	-den
4ee-	stum-
8ee-	-mer
=18	=18
4dd-	Zeu-
8dd-	-ge,
8r	.
8cc#	stei-
8cc#	-get
=19	=19
4cc#	auf-
8cc#	-wa2rts
8cc#	su2-
8dd#	|
8ee)	-sser
=20	=20
2.ff#}	Duft.}
=21	=21
4r	.
8r	.
{4bn	{Weit
8cc	in
=22	=22
8.g#	seh-
16g#	-nen
16a	dem
16fn	Ver-
4bn	-lan-
8cc	-gen
=23	=23
8r	.
8g#	brei-
8a	-tet
4bn	ihr
8cc	die
=24	=24
4dd#	Ar-
8ee	-me
4a}	aus,}
8r	.
=25	=25
2.r	.
=26	=26
8r	.
{8e	{und
8e	um-
4e	-schlin-
8f	-get
=27	=27
4gn	wahn-
8gn	-be-
4g#	-fan-
8d	-gen
=28	=28
4f	o2-
8f	-der
8.g#	Lee-
16bn	-re
16cc	nicht'
16a	-gen
=29	=29
4ee}	Graus.}
8r	.
4r	.
8r	.
=30	=30
4r	.
8r	.
{4ee	{Wohl,
8a	ich
=31	=31
4b-	weiss
8e	es,
8r	.
8.g	ar-
16a	-me
=32	=32
8g	Pflan-
8f#	-ze:
8r	.
4dd	Ein
16r	.
16cc	Ge-
=33	=33
4b-	schi-
16r	.
16a	-cke
4g	tei-
16r	.
16fn	-len
=34	=34
4e-}	wir,}
8r	.
8r	.
{8a	{ob
8a	um-
=35	=35
4bn	-strahlt
8cc	von
4cc#	Licht
8dd	und
=36	=36
4ff	Glan-
8ee-	-ze,
8r	.
8cc	uns-
8a-	-re
=37	=37
4dd	Hei-
8g	-mat
8r	.
8b-	ist
16r	.
16an	nicht
=38	=38
4g}	hier!}
8r	.
8r	.
{8g	{Und
8g	wie
=39	=39
4g	froh
8g	die
4g	Son-
8g	-ne
=40	=40
4b-	schei-
8d	-det
8r	.
8d	von
8d	des
=41	=41
4b-	Ta-
8b-	-ges
4b-	lee-
8g	-rem
=42	=42
4e}	Schein,}
8r	.
8r	.
{8e	{hu2l-
8f	-let
=43	=43
4g	der,
8g	der
4b-	wahr-
8g	-haft
=44	=44
4g	lei-
8e-	-det,
8r	.
8e-	sich
8c	in
=45	=45
4g	Schwei-
8e-	-gens
4e-	Dun-
8c	-kel
=46	=46
4c}	ein.}
8r	.
4r	.
8r	.
=47	=47
2.r	.
=48	=48
{4a	{Stil-
8d	-le
4d}	wird's}
8r	.
=49	=49
2.r	.
=50	=50
4r	.
{8d	{ein
4d	sa2u-
8d	-selnd
=51	=51
4.e-	We-
4g}	-ben}
8r	.
=52	=52
4r	.
8r	.
{4d	{fu2l-
8d	-let
=53	=53
4e-	bang
8f	den
4g	dunk-
8a	-len
=54	=54
*M9/8	*
4b-}	Raum:}
8r	.
4r	.
8r	.
4r	.
8r	.
=55	=55
*M6/8	*
{([4.a-	{schwe-
4a-]	|
8g	-re
=56	=56
8f#)	Trop-
8c#	-fen
8r	.
4c#	seh'
8c#	ich
=57	=57
4c#	schwe-
8d	-ben
8r	.
8e-	an
8e-	der
=58	=58
4e-	Bla2t-
8e-	-ter
4e-	gru2-
8e-	-nem
=59	=59
2.en}	Saum.}
==	==
*-	*-
